static/assets/images/exchanges/bluefin.svg

<svg width="341" height="256" viewBox="0 0 341 256" fill="none" xmlns="http://www.w3.org/2000/svg">
<path d="M341 128C341 142.649 334.919 155.961 325.044 165.717L246.941 240.498C242.458 244.702 237.324 248.151 231.738 250.709C224.077 254.211 215.75 256.016 207.328 256C198.999 255.925 190.788 254.022 183.273 250.425C177.462 247.751 171.765 244.38 167.261 240.085L103.11 178.631C106.368 174.726 110.448 171.59 115.059 169.448C119.669 167.307 124.696 166.212 129.779 166.244C137.835 166.244 145.238 168.917 151.063 173.412L191.869 212.494C195.919 216.149 201.332 218.34 207.328 218.34C213.338 218.34 218.794 216.107 222.844 212.452L295.732 142.649C299.426 138.809 301.686 133.646 301.686 128C301.686 122.354 299.426 117.191 295.718 113.351L222.645 43.3495C218.404 39.6548 212.964 37.6325 207.342 37.6607C201.446 37.6464 196.061 39.8082 192.04 43.3495L9.61904 218.055C8.53684 219.07 7.10944 219.635 5.6265 219.635C4.14356 219.635 2.71616 219.07 1.63396 218.055C0.713156 217.186 0.133554 216.015 0 214.756V180.622C0 177.778 1.13667 175.204 2.99796 173.269L34.8388 142.777C36.7925 140.777 38.3292 138.408 39.3595 135.808C40.3899 133.208 40.8932 130.429 40.8403 127.632C40.7875 124.835 40.1794 122.077 39.0515 119.518C37.9236 116.959 36.2984 114.65 34.2705 112.725L3.22529 82.9868C2.20815 82.0007 1.3987 80.8207 0.844741 79.5162C0.290784 78.2118 0.00355086 76.8095 0 75.3922V41.2447C0.136824 39.9898 0.716169 38.825 1.63396 37.9593C2.71851 36.9435 4.14829 36.3783 5.6336 36.3783C7.11892 36.3783 8.5487 36.9435 9.63325 37.9593L61.1527 87.2961C65.2305 91.1077 70.8001 93.4117 76.9523 93.4117C83.0903 93.4117 88.6742 91.0935 92.752 87.2819L167.843 15.3745C172.233 11.2785 177.306 7.85091 182.904 5.27669C190.575 1.77517 198.911 -0.0247651 207.342 0.000257357C216.095 0.000257357 224.378 1.90603 231.781 5.30514C237.407 7.89358 242.536 11.3496 246.955 15.5025L325.044 90.2828C329.278 94.4641 332.816 99.2855 335.459 104.605C339.011 111.687 341 119.623 341 128Z" fill="#397BFF"/>
</svg>

<svg xmlns="http://www.w3.org/2000/svg" fill="none" viewBox="0 0 341 256"><path fill="#397BFF" d="M341 128c0 14.649-6.081 27.961-15.956 37.717l-78.103 74.781a56.8 56.8 0 0 1-15.203 10.211 58.45 58.45 0 0 1-24.41 5.291 56.9 56.9 0 0 1-24.055-5.575c-5.811-2.674-11.508-6.045-16.012-10.34l-64.151-61.454a34.5 34.5 0 0 1 11.949-9.183 34.4 34.4 0 0 1 14.72-3.204c8.056 0 15.459 2.673 21.284 7.168l40.806 39.082c4.05 3.655 9.463 5.846 15.459 5.846 6.01 0 11.466-2.233 15.516-5.888l72.888-69.803c3.694-3.84 5.954-9.003 5.954-14.649s-2.26-10.809-5.968-14.649L222.645 43.35a23.12 23.12 0 0 0-15.303-5.69c-5.896-.014-11.281 2.148-15.302 5.69L9.619 218.055a5.836 5.836 0 0 1-7.985 0A5.3 5.3 0 0 1 0 214.756v-34.134c0-2.844 1.137-5.418 2.998-7.353l31.84-30.492a21.1 21.1 0 0 0 6.002-15.145 21.1 21.1 0 0 0-6.57-14.907L3.225 82.987A10.6 10.6 0 0 1 0 75.392V41.245a5.3 5.3 0 0 1 1.634-3.286 5.85 5.85 0 0 1 8 0l51.519 49.337c4.078 3.812 9.647 6.116 15.8 6.116 6.137 0 11.721-2.318 15.799-6.13l75.091-71.907a57 57 0 0 1 15.061-10.098A58.4 58.4 0 0 1 207.342 0c8.753 0 17.036 1.906 24.439 5.305a56.9 56.9 0 0 1 15.174 10.198l78.089 74.78c4.234 4.181 7.772 9.002 10.415 14.322A52 52 0 0 1 341 128"/></svg>
